picto/tram-left-framed.svg

<svg class="color-immutable" width="30" height="30" viewBox="0 0 30 30" fill="none" xmlns="http://www.w3.org/2000/svg"><path d="M30 0H0V30H30V0Z" fill="#2D327D"/><path d="M25.5 3C26.325 3 27 3.675 27 4.5V25.5C27 26.325 26.325 27 25.5 27H4.5C3.675 27 3 26.325 3 25.5V4.5C3 3.675 3.675 3 4.5 3H25.5ZM25.5 2.625H4.5C3.46613 2.625 2.625 3.46613 2.625 4.5V25.5C2.625 26.5339 3.46613 27.375 4.5 27.375H25.5C26.5339 27.375 27.375 26.5339 27.375 25.5V4.5C27.375 3.46613 26.5339 2.625 25.5 2.625Z" fill="white"/><path d="M16.5818 7.1859C16.6469 7.1208 16.6833 7.0326 16.6833 6.94072C16.6833 6.74917 16.5281 6.59385 16.3363 6.59385C16.2444 6.59385 16.1563 6.6303 16.0911 6.6954L12.2103 10.5762H9.12394C8.57142 10.5762 8.08377 10.9372 7.92229 11.4657L6.02854 17.6688C6.01122 17.7255 6.00244 17.7847 6.00244 17.8439V20.5503C6.00244 20.7574 6.17037 20.9253 6.37744 20.9253H24.0011V16.5006H20.3639C20.1567 16.5006 19.9887 16.3327 19.9887 16.1257V11.626C19.9887 11.4191 20.1567 11.251 20.3639 11.251H24.0011V10.576H13.1913L16.5818 7.1859ZM9.75207 17.6255C9.75207 17.8326 9.58414 18.0005 9.37722 18.0005H7.15902C6.95194 18.0005 6.78394 17.8326 6.78394 17.6255C6.78394 17.5885 6.78957 17.5516 6.80037 17.5161L8.61432 11.5744C8.68662 11.3378 8.90494 11.1762 9.15222 11.1762H9.18957C9.50007 11.1762 9.75199 11.428 9.75199 11.7386V17.6255H9.75207ZM11.5707 17.5132C11.5707 17.8236 11.3188 18.0757 11.0083 18.0757C10.6977 18.0757 10.4459 17.8236 10.4459 17.5132V11.7387C10.4459 11.4281 10.6978 11.1763 11.0083 11.1763C11.3187 11.1763 11.5707 11.4281 11.5707 11.7387V17.5132ZM14.0643 11.6262C14.0643 11.4193 14.2323 11.2512 14.4393 11.2512H18.9388C19.146 11.2512 19.314 11.4193 19.314 11.6262V16.1258C19.314 16.3327 19.146 16.5007 18.9388 16.5007H14.4393C14.2323 16.5007 14.0643 16.3328 14.0643 16.1258V11.6262ZM13.3895 11.7387V17.5132C13.3895 17.8236 13.1373 18.0757 12.8271 18.0757C12.5165 18.0757 12.2646 17.8236 12.2646 17.5132V11.7387C12.2646 11.4281 12.5165 11.1763 12.8271 11.1763C13.1374 11.1763 13.3895 11.4281 13.3895 11.7387Z" fill="white"/><path d="M14.6534 21.6753H10.8739C11.1852 22.4457 11.9327 22.9502 12.7637 22.9502C13.5947 22.9502 14.3424 22.4458 14.6534 21.6753Z" fill="white"/><path d="M19.1533 21.6753H19.153H15.3737C15.6847 22.4457 16.4324 22.9502 17.2633 22.9502C18.0942 22.9502 18.842 22.4458 19.1533 21.6753Z" fill="white"/><path d="M6 23.325H24V24H6V23.325Z" fill="white"/><path d="M6 6H24V6.3375H6V6Z" fill="white"/></svg>

<svg class="color-immutable" width="30" height="30" viewBox="0 0 30 30" fill="none" xmlns="http://www.w3.org/2000/svg"><g clip-path="url(#a)"><path d="M30 0H0v30h30V0Z" fill="#2D327D"/><path d="M25.5 3c.825 0 1.5.675 1.5 1.5v21c0 .825-.675 1.5-1.5 1.5h-21c-.825 0-1.5-.675-1.5-1.5v-21C3 3.675 3.675 3 4.5 3h21Zm0-.375h-21A1.877 1.877 0 0 0 2.625 4.5v21c0 1.034.841 1.875 1.875 1.875h21a1.877 1.877 0 0 0 1.875-1.875v-21A1.877 1.877 0 0 0 25.5 2.625Z" fill="#fff"/><path d="M16.582 7.186a.347.347 0 1 0-.49-.49l-3.882 3.88H9.124c-.553 0-1.04.361-1.202.89L6.03 17.669a.6.6 0 0 0-.027.175v2.706c0 .207.168.375.375.375h17.624v-4.424h-3.637a.375.375 0 0 1-.375-.375v-4.5c0-.207.168-.375.375-.375H24v-.675h-10.81l3.39-3.39Zm-6.83 10.44a.375.375 0 0 1-.375.374H7.16a.375.375 0 0 1-.359-.484l1.814-5.942a.563.563 0 0 1 .538-.398h.038c.31 0 .562.252.562.563v5.886Zm1.819-.113a.563.563 0 0 1-1.125 0V11.74a.562.562 0 0 1 1.125 0v5.774Zm2.493-5.887c0-.207.168-.375.375-.375h4.5c.207 0 .375.168.375.375v4.5a.375.375 0 0 1-.375.375h-4.5a.375.375 0 0 1-.375-.375v-4.5Zm-.675.113v5.774a.563.563 0 0 1-1.124 0V11.74a.562.562 0 0 1 1.124 0ZM14.653 21.675h-3.78a2.038 2.038 0 0 0 3.78 0ZM19.153 21.675h-3.78a2.038 2.038 0 0 0 3.78 0ZM6 23.325h18V24H6v-.675ZM6 6h18v.338H6V6Z" fill="#fff"/></g><defs><clipPath id="a"><path fill="#fff" d="M0 0h30v30H0z"/></clipPath></defs></svg>
